!!!OTL: ALS ICH AUF DEN KIRCHHOF KAM
!!!ARE: Europa, Mitteleuropa, Deutschland, Moseltal
!!!SCT: K2222
!!!YEM: Copyright 1995, estate of Helmut Schaffrath.
**kern
*ICvox
*Ivox
*M2/4
*k[b-]
*F:
{8c
=1
8f
8g
8a
8b-
=2
8.cc
16dd
8cc}
{8cc
=3
8dd
8dd
8ff
8dd
=4
4cc
8r}
{8cc
=5
8.cc
16b-
8b-
8b-
=6
8.b-
16a
8a}
{8a
=7
8a
8g
8a
8g
=8
8f
8a
8cc}
{16cc
16cc
=9
8cc
8b-
8b-
16b-
16b-
=10
8b-
8a
8a}
{16a
16a
=11
8a
8g
8a
8g
=12
4f
8r}
==
!!!AGN: Kinder - Lied, Reigen, Tanz - Spiel, Brautwerbung
!!!ONB: ESAC (Essen Associative Code) Database: KINDER
!!!AMT: simple duple
!!!AIN: vox
!!!EED: Helmut Schaffrath
!!!EEV: 1.0
*-
